X: 23678
T: Linkumdoddie
R: strathspey
M: 4/4
K: Amixolydian
Ae2d TcA Tc2|Bg2d BGBd|A/B/c/d/ eA TcA Tc2|Aa2e TcAce:|
a/g/f/e/ fd ce Tc2|Bg2d BGBd|a/g/f/e/ ca eaca|Aaca eAce|
a/g/f/e/ ae fdec|Bg2d BGBd|A/B/c/d/ eA TcA Tc2|Aa2e TcAce||

